src/assets/img/unsorted/emotes/75.svg

<svg xmlns:xlink="http://www.w3.org/1999/xlink" height="100.8" width="132.65" xmlns="http://www.w3.org/2000/svg"><use height="30.3" transform="translate(65.9 58.85)" width="25.55" xlink:href="#a"/><defs><g id="a"><path d="M13.2-10.95V2.7M8.3-14.2V3.7M3.8-11.95v15.9m2.5-14.9v15.9m4.4-17.4v17.9M1.55-9.7V2.2" fill="none" stroke="#666" stroke-linecap="round" stroke-linejoin="round" transform="translate(11.85 14.7)"/><path d="m1.1 4.05-8.55.5-3.85-.2q0-.9 3.45-2.6Q-4.4.05.4 0q4.7 0 8.05 1.75 3.3 1.7 3.3 2.65 0 .85-2.95.35l-7.7-.7" fill="#666" fill-rule="evenodd" transform="translate(11.85 14.7)"/><path d="m6.1 3.5-.95.3H5l-.35.05-1-.15-.75-.35q.95-1.45 1.85-1.4Q5.6 2 6.1 3.5m-8.7-.3q-1.2.7-2 .7l-1-.15-.1-.05q.25-1.45 1.4-1.65 1.05-.2 1.7 1.15" fill-rule="evenodd" transform="translate(11.85 14.7)"/><path d="M8.4.65 8.35.8 8.3.9l-.85 1.5-.15.2q-.55.6-1.2.9Q5.6 2 4.75 1.95q-.9-.05-1.85 1.4l-.75-.6-.3-.35Q1.2 1.6.9.65h7.5m-9.25 0q-.3 1-.95 1.8l-.05.05-1.25 1.05.5-.35q-.65-1.35-1.7-1.15-1.15.2-1.4 1.65-.9-.3-1.65-1.15l-.05-.1L-8.25 1-8.3.85l-.05-.2h7.5" fill="#fff" fill-rule="evenodd" transform="translate(11.85 14.7)"/><path d="M.9.65h-12.25M.9.65h11.25M8.4.65 8.35.8 8.3.9l-.85 1.5-.15.2q-.55.6-1.2.9l-.95.3H5l-.35.05-1-.15-.75-.35-.75-.6-.3-.35Q1.2 1.6.9.65m-1.75 0q-.3 1-.95 1.8l-.05.05-1.25 1.05.5-.35q-1.2.7-2 .7l-1-.15-.1-.05q-.9-.3-1.65-1.15l-.05-.1L-8.25 1-8.3.85l-.05-.2" fill="none" stroke="#666" stroke-linecap="round" stroke-linejoin="round" transform="translate(11.85 14.7)"/><path d="M7.45 9.5H2.1l-.55.55q-.55.4-1.4.4-.85 0-1.45-.4l-.45-.55H-7.4" fill="none" stroke="#000" stroke-linecap="round" stroke-linejoin="round" transform="translate(11.85 14.7)"/><path d="M1.8 11.7q.1 1.35 1.25 1.95m-3-2.45v3.9m-2.25-3.4q0 .9-.3 1.75" fill="none" stroke="#666" stroke-linecap="round" stroke-linejoin="round" transform="translate(11.85 14.7)"/></g></defs></svg>

<?xml version="1.0" encoding="UTF-8" standalone="no"?>
<svg xmlns:xlink="http://www.w3.org/1999/xlink" height="100.8px" width="132.65px" xmlns="http://www.w3.org/2000/svg">
  <g transform="matrix(1.0, 0.0, 0.0, 1.0, 77.75, 73.55)">
    <use height="30.3" transform="matrix(1.0, 0.0, 0.0, 1.0, -11.85, -14.7)" width="25.55" xlink:href="#shape0"/>
  </g>
  <defs>
    <g id="shape0" transform="matrix(1.0, 0.0, 0.0, 1.0, 11.85, 14.7)">
      <path d="M13.2 -10.95 L13.2 2.7 M8.3 -14.2 L8.3 3.7 M3.8 -11.95 L3.8 3.95 M6.3 -10.95 L6.3 4.95" fill="none" stroke="#666666" stroke-linecap="round" stroke-linejoin="round" stroke-width="1.0"/>
      <path d="M10.7 -12.45 L10.7 5.45 M1.55 -9.7 L1.55 2.2" fill="none" stroke="#666666" stroke-linecap="round" stroke-linejoin="round" stroke-width="1.0"/>
      <path d="M1.1 4.05 L-7.45 4.55 -11.3 4.35 Q-11.3 3.45 -7.85 1.75 -4.4 0.05 0.4 0.0 5.1 0.0 8.45 1.75 11.75 3.45 11.75 4.4 11.75 5.25 8.8 4.75 L1.1 4.05" fill="#666666" fill-rule="evenodd" stroke="none"/>
      <path d="M6.1 3.5 L5.15 3.8 5.0 3.8 4.65 3.85 3.65 3.7 2.9 3.35 Q3.85 1.9 4.75 1.95 5.6 2.0 6.1 3.5 M-2.6 3.2 Q-3.8 3.9 -4.6 3.9 L-5.6 3.75 -5.7 3.7 Q-5.45 2.25 -4.3 2.05 -3.25 1.85 -2.6 3.2" fill="#000000" fill-rule="evenodd" stroke="none"/>
      <path d="M8.4 0.65 L8.35 0.8 8.3 0.9 7.45 2.4 7.3 2.6 Q6.75 3.2 6.1 3.5 5.6 2.0 4.75 1.95 3.85 1.9 2.9 3.35 L2.15 2.75 1.85 2.4 Q1.2 1.6 0.9 0.65 L8.4 0.65 M-0.85 0.65 Q-1.15 1.65 -1.8 2.45 L-1.85 2.5 -3.1 3.55 -2.6 3.2 Q-3.25 1.85 -4.3 2.05 -5.45 2.25 -5.7 3.7 -6.6 3.4 -7.35 2.55 L-7.4 2.45 -8.25 1.0 -8.3 0.85 -8.35 0.65 -0.85 0.65" fill="#ffffff" fill-rule="evenodd" stroke="none"/>
      <path d="M0.9 0.65 L-0.85 0.65 -8.35 0.65 -11.35 0.65 M0.9 0.65 L8.4 0.65 12.15 0.65" fill="none" stroke="#666666" stroke-linecap="round" stroke-linejoin="round" stroke-width="1.0"/>
      <path d="M8.4 0.65 L8.35 0.8 8.3 0.9 7.45 2.4 7.3 2.6 Q6.75 3.2 6.1 3.5 L5.15 3.8 5.0 3.8 4.65 3.85 3.65 3.7 2.9 3.35 2.15 2.75 1.85 2.4 Q1.2 1.6 0.9 0.65 M-0.85 0.65 Q-1.15 1.65 -1.8 2.45 L-1.85 2.5 -3.1 3.55 -2.6 3.2 Q-3.8 3.9 -4.6 3.9 L-5.6 3.75 -5.7 3.7 Q-6.6 3.4 -7.35 2.55 L-7.4 2.45 -8.25 1.0 -8.3 0.85 -8.35 0.65" fill="none" stroke="#666666" stroke-linecap="round" stroke-linejoin="round" stroke-width="1.0"/>
      <path d="M7.45 9.5 L2.1 9.5 1.55 10.05 Q1.0 10.45 0.15 10.45 -0.7 10.45 -1.3 10.05 L-1.75 9.5 -7.4 9.5" fill="none" stroke="#000000" stroke-linecap="round" stroke-linejoin="round" stroke-width="1.0"/>
      <path d="M1.8 11.7 Q1.9 13.05 3.05 13.65 M0.05 11.2 L0.05 15.1 M-2.2 11.7 Q-2.2 12.6 -2.5 13.45" fill="none" stroke="#666666" stroke-linecap="round" stroke-linejoin="round" stroke-width="1.0"/>
    </g>
  </defs>
</svg>
